X: 1
T: Old Mother Flanagan
M: C|
L: 1/8
K: A
"A"a2a2 fecd | efec BAFG | "A"ABAF EFAB |cBcd "E7"e4 |
"A"a2a2 fecd | efec BAFG | "A"ABAF EFAB |"E7"cAB2 "A"A4 :|
|: "A"ABAF EFAB | c2cA BAFG | "A"ABAF EFAB | cBcd "E7"e4 |
 "D"d2fd "A"c2ec | BABc BAF2 | "A"ABAF EFAB | "E7"cAB2 "A"A4 :|
